images/ico-next.svg

<svg xmlns="http://www.w3.org/2000/svg" width="25" height="25">
    <path fill="#378467" fill-rule="evenodd" d="M2.778 8.333a1.388 1.388 0 0 1-2.778 0V4.166A4.167 4.167 0 0 1 4.166-.001h4.167a1.39 1.39 0 0 1 0 2.778H4.166c-.767 0-1.388.622-1.388 1.389v4.167zm10.844 4.166l-3.531-3.448a1.217 1.217 0 0 1 0-1.746 1.281 1.281 0 0 1 1.784 0l4.422 4.321a1.217 1.217 0 0 1 0 1.746l-4.422 4.321a1.281 1.281 0 0 1-1.784 0 1.216 1.216 0 0 1 0-1.745l3.531-3.449zm.267-9.722a1.39 1.39 0 0 1 0-2.778h6.944A4.167 4.167 0 0 1 25 4.166v16.667a4.167 4.167 0 0 1-4.167 4.166H4.166A4.166 4.166 0 0 1 0 20.833v-6.945a1.39 1.39 0 0 1 2.778 0v6.945c0 .767.621 1.388 1.388 1.388h16.667c.767 0 1.389-.621 1.389-1.388V4.166a1.39 1.39 0 0 0-1.389-1.389h-6.944z"/>
</svg>

<svg 
 xmlns="http://www.w3.org/2000/svg"
 xmlns:xlink="http://www.w3.org/1999/xlink"
 width="8.819mm" height="8.819mm">
<path fill-rule="evenodd"  fill="rgb(55, 132, 103)"
 d="M2.778,8.333 C2.778,9.100 2.156,9.721 1.389,9.721 C0.622,9.721 -0.000,9.100 -0.000,8.333 L-0.000,4.166 C-0.000,1.865 1.865,-0.001 4.167,-0.001 L8.333,-0.001 C9.100,-0.001 9.722,0.621 9.722,1.388 C9.722,2.155 9.100,2.777 8.333,2.777 L4.167,2.777 C3.399,2.777 2.778,3.399 2.778,4.166 L2.778,8.333 ZM13.622,12.499 L10.091,9.051 C9.599,8.569 9.599,7.787 10.091,7.305 C10.584,6.823 11.382,6.823 11.875,7.305 L16.297,11.626 C16.790,12.109 16.790,12.890 16.297,13.372 L11.875,17.693 C11.382,18.175 10.584,18.175 10.091,17.693 C9.599,17.211 9.599,16.430 10.091,15.948 L13.622,12.499 ZM13.889,2.777 C13.122,2.777 12.500,2.155 12.500,1.388 C12.500,0.621 13.122,-0.001 13.889,-0.001 L20.833,-0.001 C23.134,-0.001 25.000,1.865 25.000,4.166 L25.000,20.833 C25.000,23.134 23.134,24.999 20.833,24.999 L4.167,24.999 C1.865,24.999 -0.000,23.134 -0.000,20.833 L-0.000,13.888 C-0.000,13.121 0.622,12.499 1.389,12.499 C2.156,12.499 2.778,13.121 2.778,13.888 L2.778,20.833 C2.778,21.600 3.399,22.221 4.167,22.221 L20.833,22.221 C21.600,22.221 22.222,21.600 22.222,20.833 L22.222,4.166 C22.222,3.399 21.600,2.777 20.833,2.777 L13.889,2.777 Z"/>
</svg>
